X: 37951
T: Spanish
R: waltz
M: 3/4
K: Gmajor
Bc|d3 gfg|Bd d2 GB|Ac c2 FA|GB B2 Bc|d3 gfg|Bd d2 GB|Ac c2 FA|G4:|
GB|Ac c2 FA|GB B2 GB|Ac c2 FA|GB B2 Bc|d3 gfg|Bd d2 GB|Ac c2 FA|G3 D|
GA|B3 GBc|d3 Bde|dcB GBe|dcB DGA|B3 GBc|d3 Bde|dcB DFA|G4 d2|
g4 fe|ed d2 e2|dc c2 d2|cB B2 G2|g4 fe|ed d2 e2|dcc DFA|G4||

